public/assets/images/casa-azul-logo.svg

<svg xmlns="http://www.w3.org/2000/svg" viewBox="0 0 320 320"><path fill="#5f9ea0" d="M103.06 318.5c-4.71.36-9.31.87-10.24 1.12-1.22.34-2.65-1.24-5.26-5.83-1.98-3.46-4.01-6.96-4.53-7.79-1.93-3.11-12.97-25.78-15.82-32.5-3.4-8.03-8.43-23.22-10.59-32-2.03-8.25-5.46-25.36-5.82-29-.36-3.65-1.16-3.68-15.3-.55-5.5 1.22-12.35 2.46-15.23 2.76-4.95.51-5.41.35-8.75-2.99-3.51-3.51-4.33-6.82-2.7-10.94.83-2.1 18.63-22.02 34.18-38.25 13.38-13.98 24.88-26.16 34.01-36.05 5.49-5.94 39.92-42.2 43.73-46.06.68-.69 2.82-1.78 4.75-2.42 3.88-1.28 6.14-.34 29.62 12.29 5.83 3.14 11.34 5.71 12.25 5.71 1.2 0 1.64-.91 1.64-3.41v-3.42l7.48-.7c4.11-.39 8.99-.42 10.85-.07l3.36.63.61 14.13c.66 15.47.14 17.78-4.91 21.75-3.91 3.07-7.35 2.59-16.6-2.3-4.56-2.41-14.36-7.61-21.79-11.55s-14.63-7.4-16.01-7.69c-2.23-.47-5.96 3.12-33.5 32.26-2.81 2.96-5.44 5.75-7.92 8.37-29.65 31.34-36.72 38.82-35.53 40.54.38.54 1.57.51 3.12.48.42-.01.86-.02 1.32-.02 3.52 0 5.18.61 7.67 2.84 3.07 2.74 3.26 3.39 5.49 18.66 5.18 35.43 14.86 62.42 35.84 99.93 3.96 7.07 5.21 10.14 4.35 10.68-.67.41-5.06 1.04-9.77 1.39"/><path fill="purple" d="M241.87 294.08c-4.05.51-8.86 1.21-10.69 1.55-3.3.61-3.31.6-2.76-2.76 5.92-35.99 5.35-64.05-2.01-98.37l-.26-1.2c-4.65-21.71-5.39-25.19-4.38-28.04.22-.59.51-1.16.85-1.86 1.1-2.21 3.22-4.43 5.11-5.34 1.77-.86 3.23-2.03 3.25-2.6.01-.58-4.02-3.03-8.96-5.45-12.48-6.12-14.1-7.58-14.74-13.23-.29-2.56.51-14.13 1.78-25.72 1.92-17.45 2.58-21.06 3.88-21.06 2.39.01 19.52 2.16 19.88 2.5.17.16-.39 6.7-1.25 14.53-.87 7.82-1.57 16.08-1.56 18.35 0 .43-.03.81-.06 1.15-.04.45-.07.83-.01 1.2.37 2.35 4.37 4.14 33.66 19.34 11.61 6.02 21.87 11.79 22.8 12.82 2.2 2.43 3.03 7.9 1.73 11.31-2.1 5.45-4.91 6.25-23.75 6.8-9.47.27-17.54.83-17.94 1.23-.4.39.01 4.44.9 9 6.93 35.2 8.51 55.1 6.21 77.77-2.35 23.12-2.65 25.39-3.53 26.33-.43.45-4.09 1.24-8.15 1.75"/><path fill="pink" d="M186.28 295.64c-7.04 2.97-18.01 1.03-27.47-4.85-4.6-2.86-4.82-3.24-10.86-18.61-3.4-8.62-7.03-17.35-8.06-19.39-2.63-5.18-2.42-7.35.86-8.57 5.33-1.99 6.44-2.2 17.54-3.25 9.51-.89 12.95-1.74 22.71-5.61 6.32-2.51 12.52-5.2 13.77-5.99 2.69-1.7 2.93-1.28 3.51 6.13.22 2.75 1.24 7.93 2.27 11.5 1.27 4.41 1.85 9.55 1.81 16-.09 16.38-6.01 28.4-16.08 32.64"/><path fill="olive" d="M173.07 215.59c-3.64 3.07-4.5 3.03-6.85-.34-6.08-8.72-9.98-29.94-6.68-36.32 2.06-4 6.75-6.15 14.61-6.71 12.79-.91 16.77 1.16 24.27 12.66.54.84 1.07 1.64 1.57 2.42 9.15 14.03 11.45 17.55 10.69 18.42-.25.3-.85.29-1.64.28h-.41c-4.41 0-20.09 3.04-26.41 5.12-3.46 1.14-7.57 3.15-9.15 4.47"/><path fill="tomato" d="M113 231.07c0 .47-.87 1.32-1.93 1.89-2.63 1.41-5.12-1.88-8.98-11.88-3.22-8.35-4.76-21.53-2.97-25.45.54-1.17 2.64-3.23 4.68-4.58 3.25-2.15 4.85-2.45 13.2-2.5 12.38-.07 14.15.93 21.57 12.17 3.18 4.83 7.52 11.36 9.63 14.51.45.67.87 1.26 1.25 1.79 1.14 1.61 1.83 2.6 1.61 3.29-.41 1.33-4.15 1.62-14.49 3.19-10.52 1.59-23.57 5.79-23.57 7.57"/><path fill="brown" d="M194.46 156.17c-2.46 6.32-4.7 8.87-5.97 6.81-.32-.51 1.22-6.23 3.42-12.71 5.66-16.67 7.13-25.95 7.25-45.86.1-16.17-.03-17.39-3.04-27.73-1.73-5.95-2.89-11.24-2.58-11.75 1.14-1.84 2.59-.86 4.15 2.82 9.22 21.72 7.82 60.04-3.23 88.42"/><path fill="#ff0" d="M172.41 78.9c-5.56 1.55-14.36 1.24-18.1-.62-1.76-.87-3.71-2.84-4.35-4.37-1.31-3.18-.51-8.21 1.6-9.96.79-.66 1.44-2.01 1.44-3.01 0-1.39-1.07-1.98-4.53-2.5-5.63-.84-10.53-4.07-11.74-7.74-1.33-3.99.82-8.62 4.77-10.27 4.66-1.94 5.92-3.79 4.32-6.35-.72-1.14-1.64-2.08-2.06-2.08s-.76-1.94-.76-4.3c0-6.04 4.4-12.75 10.2-15.56 3.26-1.58 6.32-2.14 11.58-2.14 6.58 0 7.43.25 10.7 3.12l3.55 3.11 4.46-4.11c3.6-3.32 5.2-4.12 8.27-4.12 9.28 0 13.97 8.01 9.24 15.77-3.15 5.17-2.7 6.23 2.68 6.23 9.04 0 14.32 4.04 14.32 10.95 0 8.71-12.47 16.41-25.5 15.75-3.95-.2-4-.16-4.1 3.43-.25 8.5-6.83 16.23-15.99 18.77"/><path fill="#00f" d="M156.25 73.97c3.16 1.27 11.51 1.22 16.24-.09 2.23-.62 5.42-2.63 7.25-4.56 3.08-3.27 3.26-3.87 3.26-10.92 0-8.83.41-9.17 9.01-7.48 7.39 1.46 12.59.25 17.5-4.07 3.72-3.26 4.68-7.62 2.14-9.73-2.33-1.93-9.86-2.31-15.58-.78-9.85 2.65-10.81.19-3.5-8.97 7.5-9.42 7.13-14.37-1.08-14.37-3.46 0-6.02 3.01-9.34 10.99-3.77 9.05-7.09 8.96-7.14-.19-.02-4.09-2.08-7.78-4.71-8.44-1.29-.32-5.19-.41-8.65-.19-5.67.36-6.61.74-9.45 3.87-4.19 4.6-4.62 6.26-2.69 10.34 1.48 3.11 2.98 4.15 8.74 5.99.96.31 1.75 1.44 1.75 2.52 0 1.54-1.1 2.18-5.25 3.07-5.64 1.2-12.76 5.29-12.73 7.3.05 4.28 5.68 6.04 16.58 5.17 6.87-.54 8.2-.4 8.71.94.43 1.11-.71 2.49-3.73 4.58-8.85 6.08-12.24 13.04-7.33 15.02"/><path fill="red" d="M223.22 79.65c-2.9 1.29-6.05 2.33-7 2.31-3.11-.07-6.92-2.82-8.21-5.92-2.99-7.23 1.49-20.76 7.65-23.1 6.06-2.31 26.69-7.93 27.2-7.41.9.89-2.83 14.49-5.51 20.08-3.24 6.76-7.69 11.18-14.13 14.04"/><path fill="#1e90ff" d="M212.87 75.34c3.46 4.18 14.08-.66 18.77-8.56 3.41-5.72 6.08-13.4 5.03-14.45-.89-.88-10.72 1.39-16.57 3.82-3.03 1.26-5.41 3.1-6.6 5.12-2.22 3.75-2.57 11.73-.63 14.07"/></svg>

<svg xmlns="http://www.w3.org/2000/svg" viewBox="0 0 320 320">
<g>

<path
    id="house-left"
    d="M 103.06 318.50 C98.35,318.86 93.75,319.37 92.82,319.62 C91.60,319.96 90.17,318.38 87.56,313.79 C85.58,310.33 83.55,306.83 83.03,306.00 C81.10,302.89 70.06,280.22 67.21,273.50 C63.81,265.47 58.78,250.28 56.62,241.50 C54.59,233.25 51.16,216.14 50.80,212.50 C50.44,208.85 49.64,208.82 35.50,211.95 C30.00,213.17 23.15,214.41 20.27,214.71 C15.32,215.22 14.86,215.06 11.52,211.72 C8.01,208.21 7.19,204.90 8.82,200.78 C9.65,198.68 27.45,178.76 43.00,162.53 C56.38,148.55 67.88,136.37 77.01,126.48 C82.50,120.54 116.93,84.28 120.74,80.42 C121.42,79.73 123.56,78.64 125.49,78.00 C129.37,76.72 131.63,77.66 155.11,90.29 C160.94,93.43 166.45,96.00 167.36,96.00 C168.56,96.00 169.00,95.09 169.00,92.59 L 169.00 89.17 L 176.48 88.47 C180.59,88.08 185.47,88.05 187.33,88.40 L 190.69 89.03 L 191.30 103.16 C191.96,118.63 191.44,120.94 186.39,124.91 C182.48,127.98 179.04,127.50 169.79,122.61 C165.23,120.20 155.43,115.00 148.00,111.06 C140.57,107.12 133.37,103.66 131.99,103.37 C129.76,102.90 126.03,106.49 98.49,135.63 C95.68,138.59 93.05,141.38 90.57,144.00 C60.92,175.34 53.85,182.82 55.04,184.54 C55.42,185.08 56.61,185.05 58.16,185.02 C58.58,185.01 59.02,185.00 59.48,185.00 C63.00,185.00 64.66,185.61 67.15,187.84 C70.22,190.58 70.41,191.23 72.64,206.50 C77.82,241.93 87.50,268.92 108.48,306.43 C112.44,313.50 113.69,316.57 112.83,317.11 C112.16,317.52 107.77,318.15 103.06,318.50 Z"
    fill="cadetblue"/>

<path
    id="house-right"
    d="M 241.87 294.08 C237.82,294.59 233.01,295.29 231.18,295.63 C227.88,296.24 227.87,296.23 228.42,292.87 C234.34,256.88 233.77,228.82 226.41,194.50 L 226.15 193.30 C221.50,171.59 220.76,168.11 221.77,165.26 C221.99,164.67 222.28,164.10 222.62,163.40 C223.72,161.19 225.84,158.97 227.73,158.06 C229.50,157.20 230.96,156.03 230.98,155.46 C230.99,154.88 226.96,152.43 222.02,150.01 C209.54,143.89 207.92,142.43 207.28,136.78 C206.99,134.22 207.79,122.65 209.06,111.06 C210.98,93.61 211.64,90.00 212.94,90.00 C215.33,90.01 232.46,92.16 232.82,92.50 C232.99,92.66 232.43,99.20 231.57,107.03 C230.70,114.85 230.00,123.11 230.01,125.38 C230.01,125.81 229.98,126.19 229.95,126.53 C229.91,126.98 229.88,127.36 229.94,127.73 C230.31,130.08 234.31,131.87 263.60,147.07 C275.21,153.09 285.47,158.86 286.40,159.89 C288.60,162.32 289.43,167.79 288.13,171.20 C286.03,176.65 283.22,177.45 264.38,178.00 C254.91,178.27 246.84,178.83 246.44,179.23 C246.04,179.62 246.45,183.67 247.34,188.23 C254.27,223.43 255.85,243.33 253.55,266.00 C251.20,289.12 250.90,291.39 250.02,292.33 C249.59,292.78 245.93,293.57 241.87,294.08 Z"
    fill="purple"/>

<path
    id="door"
    d="M 186.28 295.64 C179.24,298.61 168.27,296.67 158.81,290.79 C154.21,287.93 153.99,287.55 147.95,272.18 C144.55,263.56 140.92,254.83 139.89,252.79 C137.26,247.61 137.47,245.44 140.75,244.22 C146.08,242.23 147.19,242.02 158.29,240.97 C167.80,240.08 171.24,239.23 181.00,235.36 C187.32,232.85 193.52,230.16 194.77,229.37 C197.46,227.67 197.70,228.09 198.28,235.50 C198.50,238.25 199.52,243.43 200.55,247.00 C201.82,251.41 202.40,256.55 202.36,263.00 C202.27,279.38 196.35,291.40 186.28,295.64 Z"
    fill="pink"/>

<path
    id="window-right"
    d="M 173.07 215.59 C169.43,218.66 168.57,218.62 166.22,215.25 C160.14,206.53 156.24,185.31 159.54,178.93 C161.60,174.93 166.29,172.78 174.15,172.22 C186.94,171.31 190.92,173.38 198.42,184.88 C198.96,185.72 199.49,186.52 199.99,187.30 C209.14,201.33 211.44,204.85 210.68,205.72 C210.43,206.02 209.83,206.01 209.04,206.00 C208.91,206.00 208.77,206.00 208.63,206.00 C204.22,206.00 188.54,209.04 182.22,211.12 C178.76,212.26 174.65,214.27 173.07,215.59 Z"
    fill="olive"/>

<path
    id="window-left"
    d="M 113.00 231.07 C113.00,231.54 112.13,232.39 111.07,232.96 C108.44,234.37 105.95,231.08 102.09,221.08 C98.87,212.73 97.33,199.55 99.12,195.63 C99.66,194.46 101.76,192.40 103.80,191.05 C107.05,188.90 108.65,188.60 117.00,188.55 C129.38,188.48 131.15,189.48 138.57,200.72 C141.75,205.55 146.09,212.08 148.20,215.23 C148.65,215.90 149.07,216.49 149.45,217.02 C150.59,218.63 151.28,219.62 151.06,220.31 C150.65,221.64 146.91,221.93 136.57,223.50 C126.05,225.09 113.00,229.29 113.00,231.07 Z"
    fill="tomato"/>

    <g id="flower">
        <path
            id="flower-stem"
            d="M 194.46 156.17 C192.00,162.49 189.76,165.04 188.49,162.98 C188.17,162.47 189.71,156.75 191.91,150.27 C197.57,133.60 199.04,124.32 199.16,104.41 C199.26,88.24 199.13,87.02 196.12,76.68 C194.39,70.73 193.23,65.44 193.54,64.93 C194.68,63.09 196.13,64.07 197.69,67.75 C206.91,89.47 205.51,127.79 194.46,156.17 Z"
            fill="brown"/>
        <path
            id="flower-petals-outter"
            d="M 172.41 78.90 C166.85,80.45 158.05,80.14 154.31,78.28 C152.55,77.41 150.60,75.44 149.96,73.91 C148.65,70.73 149.45,65.70 151.56,63.95 C152.35,63.29 153.00,61.94 153.00,60.94 C153.00,59.55 151.93,58.96 148.47,58.44 C142.84,57.60 137.94,54.37 136.73,50.70 C135.40,46.71 137.55,42.08 141.50,40.43 C146.16,38.49 147.42,36.64 145.82,34.08 C145.10,32.94 144.18,32.00 143.76,32.00 C143.34,32.00 143.00,30.06 143.00,27.70 C143.00,21.66 147.40,14.95 153.20,12.14 C156.46,10.56 159.52,10.00 164.78,10.00 C171.36,10.00 172.21,10.25 175.48,13.12 L 179.03 16.23 L 183.49 12.12 C187.09,8.80 188.69,8.00 191.76,8.00 C201.04,8.00 205.73,16.01 201.00,23.77 C197.85,28.94 198.30,30.00 203.68,30.00 C212.72,30.00 218.00,34.04 218.00,40.95 C218.00,49.66 205.53,57.36 192.50,56.70 C188.55,56.50 188.50,56.54 188.40,60.13 C188.15,68.63 181.57,76.36 172.41,78.90 Z"
            fill="yellow"/>
        <path
            id="flower-petals-inner"
            d="M 156.25 73.97 C159.41,75.24 167.76,75.19 172.49,73.88 C174.72,73.26 177.91,71.25 179.74,69.32 C182.82,66.05 183.00,65.45 183.00,58.40 C183.00,49.57 183.41,49.23 192.01,50.92 C199.40,52.38 204.60,51.17 209.51,46.85 C213.23,43.59 214.19,39.23 211.65,37.12 C209.32,35.19 201.79,34.81 196.07,36.34 C186.22,38.99 185.26,36.53 192.57,27.37 C200.07,17.95 199.70,13.00 191.49,13.00 C188.03,13.00 185.47,16.01 182.15,23.99 C178.38,33.04 175.06,32.95 175.01,23.80 C174.99,19.71 172.93,16.02 170.30,15.36 C169.01,15.04 165.11,14.95 161.65,15.17 C155.98,15.53 155.04,15.91 152.20,19.04 C148.01,23.64 147.58,25.30 149.51,29.38 C150.99,32.49 152.49,33.53 158.25,35.37 C159.21,35.68 160.00,36.81 160.00,37.89 C160.00,39.43 158.90,40.07 154.75,40.96 C149.11,42.16 141.99,46.25 142.02,48.26 C142.07,52.54 147.70,54.30 158.60,53.43 C165.47,52.89 166.80,53.03 167.31,54.37 C167.74,55.48 166.60,56.86 163.58,58.95 C154.73,65.03 151.34,71.99 156.25,73.97 Z"
            fill="blue"/>
        <path
            id="flower-blat-outter"
            d="M 223.22 79.65 C220.32,80.94 217.17,81.98 216.22,81.96 C213.11,81.89 209.30,79.14 208.01,76.04 C205.02,68.81 209.50,55.28 215.66,52.94 C221.72,50.63 242.35,45.01 242.86,45.53 C243.76,46.42 240.03,60.02 237.35,65.61 C234.11,72.37 229.66,76.79 223.22,79.65 Z"
            fill="red"/>
        <path
            id="flower-blat-inner"
            d="M 212.87 75.34 C216.33,79.52 226.95,74.68 231.64,66.78 C235.05,61.06 237.72,53.38 236.67,52.33 C235.78,51.45 225.95,53.72 220.10,56.15 C217.07,57.41 214.69,59.25 213.50,61.27 C211.28,65.02 210.93,73.00 212.87,75.34 Z"
            fill="dodgerblue"/>
    </g>
</g>
</svg>
